X:1
T:Si Jesus är ett tröstrikt namn
T:Knut Håkanson (1887-1929)
T:Si Jesus är ett tröstrikt namn
T:Op 32 nr 4
%%score { ( 1 2 ) | ( 3 4 ) }
L:1/8
Q:1/4=120
M:4/2
K:Ab
V:1 treble nm="Vocals"
V:2 treble 
V:3 bass 
V:4 bass 
V:1
 (E2"^Instrument change" (3AGA) | %1
w: Si * * *|
w: Guds * * *|
w: Av * * *|
"^Instrument change" c4 (B2 d2) (c2{dc} B2) (A2 d2)"^Instrument change" | %2
w: Je- sus * är * ett *|
w: en- de * son, * o *|
w: Dig är * all * rätt- *|
"^Instrument change" (c2"^Instrument change" A2) (B2 G2) !fermata!A4 (c2 ec) | %3
w: tröst- * rikt * namn, Och * *|
w: Je- * su * huld, för- * *|
w: fär- * dig- * het. Av * *|
"^Instrument change" (d2"^Instrument change" Bd) (c2 A2) B4 (A2 F2) | %4
w: i * * all * nöd vår *|
w: låt * * oss * all vår *|
w: dig * * all * frid och *|
"^Instrument change" (A2"^Instrument change" c2) (B2 G2) !fermata!E4 (c2 ec) | %5
w: säk- * ra * hamn. I- * *|
w: synd * och * skuld. Vår * *|
w: sa- * lig- * het. Ho * *|
"^Instrument change" (d2"^Instrument change" Bd) (c2 A2) B4 (A2 F2) | %6
w: ge- * * nom * Je- sus *|
w: nöd * * du * ser och *|
w: sät- * * ter * till Ditt *|
"^Instrument change" (A2"^Instrument change" c2) (B2 G2) !fermata!E4 (3(c2 e2 c2) | %7
w: får * vi * nåd, Och * *|
w: hjäl- * pa * kan, Du * *|
w: namn * sin * tröst, han * *|
"^Instrument change" (3(d2 B2 d2) (c2 A2) B4 (A2 d2)"^Instrument change" | %8
w: fin- * * na * på det *|
w: som * * är * bå- de *|
w: var- * * der * av allt *|
"^Instrument change" (c2"^Instrument change" A2) (B2 G2) !fermata!A4 z4 |] %9
w: bäs- * ta * råd.|
w: Gud * och * man.|
w: ont * för- * löst.|
V:2
 (E2 F2) | E4 E4 E4 (E2 F2) | (E2 C2) (D2 B,2) !fermata!C4 E4 | (F2 D2) (E2 C2) (B,2 D2) (C2 =D2) | %4
 E4 =D4 !fermata!E4 E4 | (F2 DF) C4 B,4 (C2 =D2) | (E2 C2) =D4 !fermata!E4 (3(E2 G2 E2) | %7
 E4 E4 (E2 D2) (C2 F2) | (E2 C2) (D2 B,2) !fermata!C4 z4 |] %9
V:3
 (C2 D2) | (C2 (3A,G,A,) B,4 (A,2 G,2) A,4 | (G,2 A,2) (F,2 E,2) !fermata!E,4 A,4- | %3
 A,2 G,4 F,2- F,2 G,2 A,4 | (E,2 A,2) (F,2 B,2) !fermata!G,4 (G,2 A,2) | %5
 (F,2 G,2) (E,2 F,2) (=D,2 =E,2) F,4 | E,4 (B,2 A,2) !fermata!G,4 G,4 | (A,2 B,2) A,4 G,4 A,4 | %8
 (G,2 A,2) (F,2 E,2) !fermata!E,4 z4 |] %9
V:4
 A,4 | A,,4 G,,4 (A,,2 B,,2) (C,2 D,2) | (E,2 F,2) (D,2 E,2) !fermata!A,,4 (A,2 G,2) | %3
 F,4 E,4 (D,2 E,2) F,4 | (C,2 A,,2) B,,4 !fermata!E,4 C,4 | B,,4 A,,4 G,,4 (F,,2 B,,2) | %6
 (C,2 A,,2) B,,4 !fermata!C,4 E,,4 | (F,,2 G,,2) (A,,2 C,2) E,4 (F,2 D,2) | %8
 (E,2 F,2) (D,2 E,2) !fermata!A,,4 z4 |] %9

